X: 1
T: Jimmy Lyon's
M: 4/4
L: 1/8
R: hornpipe
K: Amaj
EA,CE D2 FD|EAcA B<B, B,2|EA,CE D2 FD|1EAGB c<A A2:|2EAGB c<A (3cde||
aefa ecAc|(3ded (3cdc B<B, B,2|aefa ecAc|BEGB c<A (3cde|
aefa ecAc|(3ded (3cdc B<B, B,2|EA,CE D2 FD|EAGB c<A A2||
